X:1
T:Title
%%score { ( 1 3 ) | ( 2 4 ) }
L:1/8
Q:1/4=100
M:4/4
K:Bb
V:1 treble nm="Grand Piano"
V:3 treble 
V:2 bass 
V:4 bass 
V:1
 [Fd]3 [DB] [EA][DB][Fc][FB] | A4 G2 z2 | A3 G FGFE | D6 z2 | [Fd]3 [DB] [EA][DB][Fc][FB] | %5
w: Howard~E.~Smith * * * * *|||||
 [FA]4 G2 z2 | F3 B AB d>c | B2- [EB-][EB-] [DB]2 z2 | A3 B cedc | [DB]4 [Fd]2 z2 | %10
w: |||||
 [Fc]3 [Fd] [Fc][=EB][EA][EB] | [Ec]6 z2 | [Fd]3 [DB] [EA][DB][Fc][FB] | [FA]4 G2 z2 | %14
w: ||||
 F3 B AB d>c | B2- [EB-]2 [DB]2 z2 |] %16
w: ||
V:2
 [B,,B,]3 [B,,F,] [C,F,][B,,F,][D,B,][D,B,] | [F,B,F]4 [E,B,E]2 z2 | %2
 [F,E]3 [F,B,E] [F,A,C][F,B,][F,A,][F,A,] | [B,,F,B,]6 z2 | %4
 [B,,B,]3 [B,,F,] [C,F,][B,,F,][D,B,][D,B,] | [E,B,]4 [E,B,E]2 z2 | %6
 [F,B,D]3 [F,B,D] [F,CE][F,B,D] [F,A,F]>[F,A,E] | z2 G,^F, =F,2 z2 | %8
 [F,CE]3 [F,B,D] [F,A,E][F,CF][F,B,F][F,A,E] | [B,,B,]4 [B,,B,]2 z2 | %10
 [C,A,]3 [C,B,] [C,A,][C,G,][C,C][C,B,] | [F,A,]6 z2 | [B,,B,]3 [B,,F,] [C,F,][B,,F,][D,B,][D,B,] | %13
 [E,B,]4 [E,B,E]2 z2 | [F,B,D]3 [F,B,D] [F,CE][F,B,D] [F,A,F]>[F,A,E] | z2 G,^F, =F,2 z2 |] %16
V:3
 x8 | x8 | x8 | x8 | x8 | x8 | x8 | [B,D]2 z2 z4 | x8 | x8 | x8 | x8 | x8 | x8 | x8 | %15
 [B,D]2 z2 z4 |] %16
V:4
 x8 | x8 | x8 | x8 | x8 | x8 | x8 | B,,6 z2 | x8 | x8 | x8 | x8 | x8 | x8 | x8 | B,,6 z2 |] %16

